src/assets/images/RibbonPending.svg

<svg width="19.126747mm" height="19.111057mm" viewBox="0 0 36 35" fill="none" xmlns="http://www.w3.org/2000/svg">
<path fill-rule="evenodd" clip-rule="evenodd" d="M32.9006 16.479L35.0575 15.8176V32.8718L32.9006 35V16.479Z" fill="#D4721B"/>
<path fill-rule="evenodd" clip-rule="evenodd" d="M18.5497 2.15694L19.1824 0H2.15694L0 2.15694H18.5497Z" fill="#D4721B"/>
<path fill-rule="evenodd" clip-rule="evenodd" d="M21.3681 2.15694L19.2112 0H2.15695L30.7436 28.5579L32.9006 30.7149L35.0575 32.8718V15.8176L23.5251 4.31389L21.3681 2.15694Z" fill="url(#paint0_linear)"/>
<path d="M18.2334 5.72309C18.8948 5.03286 18.6072 4.31388 17.9745 3.65242L16.8817 2.55957L13.9195 5.55053L14.6385 6.26951L15.7601 5.1479L16.1052 5.49301C16.7379 6.09696 17.5431 6.41331 18.2334 5.72309ZM17.4856 5.00411C17.2268 5.2917 16.8817 5.1479 16.6228 4.86031L16.3353 4.57272L17.0255 3.85374L17.3418 4.17009C17.6007 4.42892 17.7732 4.74527 17.4856 5.00411Z" fill="white"/>
<path d="M18.2046 7.21859C18.4347 7.01727 18.8085 7.01727 19.0961 7.2761C19.355 7.5637 19.3262 7.88005 19.0961 8.08136L18.2046 7.21859ZM19.47 9.00166C20.189 8.28268 20.1602 7.4199 19.5563 6.81596C18.9236 6.18325 17.9745 6.12574 17.3131 6.81596C16.6228 7.50618 16.7379 8.42647 17.3706 9.05918C17.802 9.49057 18.2621 9.63436 18.751 9.54808L18.5785 8.77159C18.3484 8.80034 18.1183 8.74283 17.8883 8.54151C17.6582 8.28268 17.5719 7.90881 17.802 7.64997L19.2975 9.14546C19.355 9.08794 19.4125 9.03042 19.47 9.00166Z" fill="white"/>
<path d="M20.9655 12.4527L22.2597 11.1586C22.6911 10.7559 22.9211 10.1232 22.346 9.54805C22.0584 9.26046 21.6557 9.20294 21.3681 9.28922L21.6557 8.97286L20.9943 8.3114L18.8949 10.4108L19.6138 11.101L20.7354 9.97944C20.9655 9.7206 21.3106 9.63433 21.5407 9.89316C21.7995 10.1232 21.6557 10.4108 21.4257 10.6409L20.2753 11.7913L20.9655 12.4527Z" fill="white"/>
<path d="M23.7264 15.1561L26.8899 11.9926L26.1997 11.3024L24.9055 12.5965C24.9055 12.3377 24.848 11.9926 24.5316 11.6762C23.9277 11.0723 23.0362 11.2161 22.461 11.7913C21.8858 12.3952 21.7132 13.2868 22.3459 13.9195C22.6335 14.1783 23.0362 14.3221 23.3525 14.2646H23.3813L23.0937 14.5234L23.7264 15.1561ZM24.129 13.4593C23.8414 13.7182 23.3813 13.8044 23.0937 13.4881C22.7486 13.1717 22.8636 12.7403 23.1224 12.4527C23.3813 12.1939 23.8127 12.1076 24.1578 12.424C24.4454 12.7403 24.3878 13.2005 24.129 13.4593Z" fill="white"/>
<path d="M27.7814 13.6607C28.0115 13.4593 27.9827 13.1142 27.7814 12.8842C27.5514 12.6828 27.2062 12.6828 27.0049 12.8842C26.8036 13.0855 26.8036 13.4306 27.0337 13.6607C27.235 13.862 27.5801 13.8907 27.7814 13.6607ZM24.9918 16.364L27.0912 14.2934L26.401 13.6031L24.3016 15.7026L24.9918 16.364Z" fill="white"/>
<path d="M27.6377 18.9523L28.9031 17.6582C29.3344 17.2555 29.5645 16.5941 28.9893 16.0476C28.7017 15.76 28.2991 15.6738 28.0115 15.7888V15.76L28.2991 15.4725L27.6377 14.811L25.567 16.9104L26.2572 17.6006L27.3788 16.4503C27.6089 16.2202 27.954 16.1339 28.1841 16.364C28.4429 16.6228 28.2991 16.9104 28.069 17.1405L26.9474 18.2621L27.6377 18.9523Z" fill="white"/>
<path d="M30.5711 21.4544L32.4692 19.5563L31.8078 18.9236L31.5489 19.1824C31.6064 18.8085 31.4626 18.4347 31.2038 18.1758C30.5711 17.5719 29.6796 17.7157 29.1044 18.2909C28.5292 18.8661 28.4142 19.7288 29.0469 20.3615C29.3345 20.6491 29.6508 20.7642 29.9384 20.7066L29.9672 20.7354L29.8521 20.8504C29.507 21.1956 29.0756 21.2531 28.673 20.8504C28.4429 20.6204 28.2704 20.2753 28.2416 19.9014L27.4076 20.0452C27.4651 20.5341 27.7815 21.0805 28.1553 21.4544C28.9031 22.1734 29.7659 22.2884 30.5711 21.4544ZM30.7724 19.9589C30.4848 20.2465 30.0534 20.2753 29.7371 19.9877C29.4207 19.6713 29.507 19.2399 29.7946 18.9523C30.0822 18.6647 30.4848 18.6072 30.8012 18.9236C31.1175 19.2112 31.06 19.6713 30.7724 19.9589Z" fill="white"/>
<defs>
<linearGradient id="paint0_linear" x1="2.1443" y1="16.427" x2="35.0615" y2="16.427" gradientUnits="userSpaceOnUse">
<stop stop-color="#F1C40F"/>
<stop offset="1" stop-color="#F1A90F"/>
</linearGradient>
</defs>
</svg>

<svg width="72.29" height="72.231" viewBox="0 0 36 35" fill="none" xmlns="http://www.w3.org/2000/svg"><path fill-rule="evenodd" clip-rule="evenodd" d="m32.9 16.479 2.157-.661v17.054L32.901 35V16.479zM18.55 2.157 19.182 0H2.157L0 2.157h18.55z" fill="#D4721B"/><path fill-rule="evenodd" clip-rule="evenodd" d="M21.368 2.157 19.211 0H2.157l28.587 28.558 2.157 2.157 2.156 2.157V15.818L23.525 4.314l-2.157-2.157z" fill="url(#a)"/><path d="M18.233 5.723c.662-.69.374-1.41-.259-2.07L16.883 2.56l-2.963 2.99.72.72 1.121-1.122.345.345c.633.604 1.438.92 2.128.23zm-.747-.719c-.26.288-.604.144-.863-.144l-.288-.287.69-.72.317.317c.259.259.431.575.144.834zM18.205 7.219c.23-.202.604-.202.891.057.259.288.23.604 0 .805l-.891-.862zm1.265 1.783c.719-.72.69-1.582.086-2.186-.632-.633-1.582-.69-2.243 0-.69.69-.575 1.61.058 2.243.431.432.891.575 1.38.49l-.173-.777c-.23.028-.46-.03-.69-.23-.23-.26-.316-.633-.086-.892l1.495 1.495c.058-.057.116-.115.173-.143zM20.965 12.453l1.295-1.294c.431-.403.661-1.036.086-1.611a1.007 1.007 0 0 0-.978-.259l.288-.316-.662-.662-2.1 2.1.72.69 1.121-1.122c.23-.258.576-.345.806-.086.258.23.115.518-.115.748l-1.15 1.15.69.662zM23.726 15.156l3.164-3.163-.69-.69-1.294 1.293c0-.258-.058-.603-.374-.92-.604-.604-1.496-.46-2.071.115-.575.604-.748 1.496-.115 2.128.288.26.69.403 1.006.346h.03l-.288.258.632.633zm.403-1.697c-.288.26-.748.345-1.035.03-.345-.317-.23-.749.028-1.036.26-.26.69-.345 1.036-.029a.755.755 0 0 1-.029 1.035zM27.781 13.66c.23-.2.202-.546 0-.776-.23-.201-.575-.201-.776 0-.201.201-.201.547.029.777.201.201.546.23.747 0zm-2.79 2.704 2.1-2.07-.69-.69-2.1 2.099.69.661zM27.638 18.952l1.265-1.294c.431-.402.662-1.064.086-1.61-.287-.288-.69-.374-.977-.26v-.028l.287-.287-.661-.662-2.071 2.1.69.69 1.122-1.15c.23-.23.575-.317.805-.087.259.259.115.546-.115.776l-1.122 1.122.69.69zM30.571 21.454l1.898-1.898-.661-.632-.26.258a1.185 1.185 0 0 0-.344-1.006c-.633-.604-1.524-.46-2.1.115-.575.575-.69 1.438-.057 2.07.287.288.604.403.891.346l.03.028-.116.115c-.345.346-.776.403-1.179 0a1.536 1.536 0 0 1-.431-.949l-.834.144c.057.49.373 1.035.747 1.41.748.718 1.61.833 2.416 0zm.201-1.495a.729.729 0 0 1-1.035.029c-.316-.317-.23-.748.058-1.036.287-.287.69-.345 1.006-.028.317.287.259.747-.029 1.035z" fill="#fff"/><defs><linearGradient id="a" x1="2.144" y1="16.427" x2="35.062" y2="16.427" gradientUnits="userSpaceOnUse"><stop stop-color="#F1C40F"/><stop offset="1" stop-color="#F1A90F"/></linearGradient></defs></svg>
